X:233
T:Town Teine
R:reel
C:Paddy O'Brien
Z:Transcribed by Dave Marshall
M:C|
K:G
|: gedB eBdB | AdBG ABce | d~B3 dBAG | FGAF G2Bd |
~g3e dcBG | AdBG ABce | d~g3 fgag |1 fdef g4 :|2 fdef g2ge |
|: d2BG DGBG | A~E3 ABcA | B~G3 DGBd | egfa gfge |
d~B3 eBdB | AGAB c2Bc | d~g3 fgag | fdef g4 :|
